X:1
T:Title
%%score { 1 | ( 2 3 ) }
L:1/8
Q:1/4=110
M:6/8
K:G
V:1 treble nm="Grand Piano"
V:2 bass 
V:3 bass 
V:1
 .[CEG]3 [^DA]3 | .[G,EG]3 [EGc]3 | [D=Fc]2 [DFB] [DFA]2 [DFB] | [CEc]6 | .[CEG]3 [^DA]3 | %5
w: Chas.~H.~Gabriel *|||||
 .[G,EG]3 [EGc]3 | [DGB]2 [Gd] [FA]2 [Fd] | [B,G]6 | [Bd]2 [Bd] [Bd]2 [ce] | %9
w: ||||
 [Bd]2 [Ac] [GB]2 [=FA] | [=FA]2 [EG] [EG]2 [^D^F] | [EG]6 | G2 =F F2 B | B6 | %14
w: |||||
 [EA]2 [EG] [EG]2 [Ec] | [Ec]6 | [Bd]2 [Bd] [Bd]2 [ce] | [Bd]2 [Ac] [GB]2 [=FA] | %18
w: ||||
 [=FA]2 [EG] [EG]2 [^D^F] | [EG]6 | A2 A ^G2 A | [Fd]6 | B2 B A2 B |[M:5/8] [Ec]-[Ec]- [Ec]3 |] %24
w: ||||||
V:2
 z2 G, [C,F,]3 | z2 C C,3 | G,2 G, G,2 G, | C,6 | z2 G, [C,F,]3 | z2 C C,3 | %6
 D,2 [D,B,] [D,C]2 [D,C] | G,6 | G,2 G, G,2 G, | G,2 G, [G,A,]2 [G,B,] | %10
 [C,C]2 [C,C] [C,C]2 [C,C] | [C,C]6 | [G,E]2 [G,D] [G,B,D]2 [G,D=F] | [G,D=F]6 | %14
 [C,C]2 [C,C] [C,C]2 [C,G,] | [C,G,]6 | G,2 G, G,2 G, | G,2 G, [G,A,]2 [G,B,] | %18
 [C,C]2 [C,C] [C,C]2 [C,C] | [C,C]6 | [=F,C=F]2 [F,CF] [F,CF]2 [F,CF] | [D,C]6 | %22
 [G,D=F]2 [G,DF] [G,DF]2 [G,F] |[M:5/8][K:bass] [C,G,]-[C,G,]- [C,G,]3 |] %24
V:3
 C,3 z3 | C,3 z3 | x6 | x6 | C,3 z3 | C,3 z3 | x6 | x6 | x6 | x6 | x6 | x6 | x6 | x6 | x6 | x6 | %16
 x6 | x6 | x6 | x6 | x6 | x6 | x6 |[M:5/8][K:bass] x5 |] %24

